X:1
T:Botany Bay
C:Traditional (Australian)
M:4/4
L:1/4
K:G
Q:1/4=104
|: G2 G A | B A G F | E2 D E | F G A2 |
    G2 G A | B A G F | E D C D | G4 :|
w: Fare-well to old Eng-land for-ev-er, Fare-well to my old mates as well,
w: Fare-well to my own, my own true love, I know that I ne'er shall see ye more.
w: The Judg-e he con-demn-ed me to per-ish, A thou-sand miles a-way from the shore,
w: They giv me no time to pre-pare me, But sent me down to Van-Die-men's shore.
